!!!COM: Gabriel Faure/
!!!CNT: Francais
!!!TXO: Francais
!!!OTL: Les Berceaux
!!!OPS: Op. 23
!!!ONM: No. 1
!!!LYR: Sully Prudhomme
!!!ENC: Jacob Pegg
!!!YOR: Album of Twenty Songs (Vingt Me/lodies,) Volume II
!!!YOR: Edward B. Marks Music Corporation, RCA Building, Radio
!!!YOR: City, New York 20, N.Y.
!!!ODT: 1879/
!!NB: Vocal melody and text only encoded.
!!NB: First instance of melodic material only encoded.
**kern	**silbe
*clef G2	*
*k[b-e-a-]	*
*M12/8	*
*MM[andante]	*
!!created: 2/6/04 20:14
!!proofed and posted: 2/9/04 21:51
!!edit time: 43 min.
=1	=1
1r	.
2r	.
=2	=2
2r	.
1r	.
=3	=3
{4.g	{Le
4cc	long
8cc	du
[4.b-	Quai,
4b-]	|
8b-	les
=4	=4
[4.a-	grands
4a-]	|
8a-	vais-
2.g}	-seaux,}
=5	=5
{4g	{Que
8e-	la
4f	houle
8g	in-
4.b-	-cli-
4g	-ne en
8e-	si-
=6	=6
2.d	-len-
[4.c	-ce,
8c]}	|}
8r	.
{8g	{Ne
=7	=7
4.g	pren-
4cc	-nent
8cc	pas
2.b-	garde
=8	=8
[4.a-	aux
4a-]	|
8a-	ber-
2.g}	-ceaux,}
=9	=9
{4g	{Que
8e-	la
4f	main
8g	des
4.d	fem-
4B-	-mes
8c	ba-
=10	=10
2.d	-lan-
[2.d	-ce.
=11	=11
*M6/8	*
4.d]}	|}
4r	.
8r	.
=12	=12
*M12/8	*
{4.g	{Mais
4.dd	vien-
4.cc	-dra
4.g	le
=13	=13
4.f	jour
4g	des
8a-	a-
2.g}	-dieux,}
=14	=14
{4g	{Car
8g	il
4.cc	faut
4cc	que
8cc	les
4b-	fem-
8a-	-mes
=15	=15
2.g	pleu-
2.a-}	-rent,}
=16	=16
{4.a-	{Et
4b-	que
8cc	les
2.dd	hom-
=17	=17
4.cc	-mes
4dd	cu-
8ee-	-ri-
2.ff}	-eux}
=18	=18
{4.gg-	{Ten-
4ff	-tent
8ee-	les
4ddn	ho-
8cc	-ri-
4bn	-zons
8cc	qui
=19	=19
1.ggn	leur-
=20	=20
[2.g	-rent!
4.g]}	|}
4r	.
8r	.
=21	=21
1r	.
2r	.
=22	=22
{4.g	{Et
4cc	ce
8cc	jour
[4.b-	la\
4b-]	|
8b-	les
=23	=23
[4.a-	grands
4a-]	|
8a-	vais-
2.g}	-seaux,}
=24	=24
{4.g	{Fuy-
4e-	-ant
8f	le
4g	port
8g	qui
4f	di-
8e-	-mi-
=25	=25
2.d	-nu-
2.d}	-e,}
=26	=26
{4.g	{Sen-
4bn	-tent
8dd	leur
2.ff	mas-
=27	=27
4.ee-	-se
4dd	re-
8cc	-te-
4.dd	-nu-
4.g}	-e}
=28	=28
2.r	.
{2.cc	{Par
=29	=29
2.b-	l'a^-
4.b-	-me
4cc	des
8b-	loin-
=30	=30
[2.b-	-tains
4.b-]	|
4.a-	ber-
=31	=31
1.g}	-ceaux,}
=32	=32
2.r	.
{2.g	{Par
=33	=33
2.cc	l'a^-
4.cc	-me
4b-	des
8a-	loin-
=34	=34
[2.g	-tains
4.g]	|
4.g	ber-
=35	=35
[1.c	-ceaux.
=36	=36
2.c]}	|}
2.r	.
*-	*-
